app/assets/images/icons/active/hotel.svg

<?xml version="1.0" encoding="UTF-8" standalone="no"?>
<svg width="32px" height="232px" viewBox="0 0 32 232" version="1.1" xmlns="http://www.w3.org/2000/svg" xmlns:xlink="http://www.w3.org/1999/xlink" xmlns:sketch="http://www.bohemiancoding.com/sketch/ns">
    <title>hotel</title>
    <description>Created with Sketch (http://www.bohemiancoding.com/sketch)</description>
    <defs></defs>
    <g id="Points-of-interest" stroke="none" stroke-width="1" fill="none" fill-rule="evenodd" sketch:type="MSPage">
        <path d="M28.9373866,181.515322 C28.6991581,181.235039 28.3542749,181.087308 27.9505822,181.087308 L6.70538152,181.087308 L6.70538152,170.367736 C6.70538152,169.071552 5.75844802,168 4.59920206,168 C3.43596901,168 2.5,169.071552 2.5,170.367736 L2.5,186.644406 C2.5,187.946661 3.43596901,189 4.59920206,189 C5.75844802,189 6.70538152,187.946661 6.70538152,186.644406 L6.70538152,185.136745 L25.1147656,185.136745 L25.1147656,186.592801 C25.1147656,187.891009 26.0646894,188.944348 27.2249321,188.944348 C28.3841781,188.944348 29.3341019,187.891009 29.3341019,186.592801 L29.3341019,183.05941 C29.3341019,182.95013 29.4258049,182.06577 28.9373866,181.515322 M8.8145513,177.371784 C8.8145513,178.342151 9.61894639,179.107112 10.5678734,179.107112 L28.8068095,179.107112 C31.1272949,174.931194 26.9707552,171.80052 25.8533737,171.80052 L18.6796049,171.80052 C18.4682892,171.053773 17.7964648,170.515467 16.9930664,170.515467 C16.0421459,170.515467 15.2337637,171.27638 15.223796,172.256866 L15.223796,175.615207 L10.5678734,175.615207 C9.61097222,175.615207 8.8145513,176.389274 8.8145513,177.371784 M11.2686042,174.664065 C12.8275558,174.664065 14.0934564,173.377999 14.0934564,171.80052 C14.0934564,170.221018 12.8275558,168.92281 11.2686042,168.92281 C9.7186236,168.92281 8.44574562,170.221018 8.44574562,171.80052 C8.44574562,173.377999 9.7186236,174.664065 11.2686042,174.664065" id="hotel--purple" fill="#BF538D" sketch:type="MSShapeGroup"></path>
        <path d="M28.9373866,141.515322 C28.6991581,141.235039 28.3542749,141.087308 27.9505822,141.087308 L6.70538152,141.087308 L6.70538152,130.367736 C6.70538152,129.071552 5.75844802,128 4.59920206,128 C3.43596901,128 2.5,129.071552 2.5,130.367736 L2.5,146.644406 C2.5,147.946661 3.43596901,149 4.59920206,149 C5.75844802,149 6.70538152,147.946661 6.70538152,146.644406 L6.70538152,145.136745 L25.1147656,145.136745 L25.1147656,146.592801 C25.1147656,147.891009 26.0646894,148.944348 27.2249321,148.944348 C28.3841781,148.944348 29.3341019,147.891009 29.3341019,146.592801 L29.3341019,143.05941 C29.3341019,142.95013 29.4258049,142.06577 28.9373866,141.515322 M8.8145513,137.371784 C8.8145513,138.342151 9.61894639,139.107112 10.5678734,139.107112 L28.8068095,139.107112 C31.1272949,134.931194 26.9707552,131.80052 25.8533737,131.80052 L18.6796049,131.80052 C18.4682892,131.053773 17.7964648,130.515467 16.9930664,130.515467 C16.0421459,130.515467 15.2337637,131.27638 15.223796,132.256866 L15.223796,135.615207 L10.5678734,135.615207 C9.61097222,135.615207 8.8145513,136.389274 8.8145513,137.371784 M11.2686042,134.664065 C12.8275558,134.664065 14.0934564,133.377999 14.0934564,131.80052 C14.0934564,130.221018 12.8275558,128.92281 11.2686042,128.92281 C9.7186236,128.92281 8.44574562,130.221018 8.44574562,131.80052 C8.44574562,133.377999 9.7186236,134.664065 11.2686042,134.664065" id="hotel--lp-blue" fill="#206FAC" sketch:type="MSShapeGroup"></path>
        <path d="M28.9373866,101.515322 C28.6991581,101.235039 28.3542749,101.087308 27.9505822,101.087308 L6.70538152,101.087308 L6.70538152,90.3677363 C6.70538152,89.0715525 5.75844802,88 4.59920206,88 C3.43596901,88 2.5,89.0715525 2.5,90.3677363 L2.5,106.644406 C2.5,107.946661 3.43596901,109 4.59920206,109 C5.75844802,109 6.70538152,107.946661 6.70538152,106.644406 L6.70538152,105.136745 L25.1147656,105.136745 L25.1147656,106.592801 C25.1147656,107.891009 26.0646894,108.944348 27.2249321,108.944348 C28.3841781,108.944348 29.3341019,107.891009 29.3341019,106.592801 L29.3341019,103.05941 C29.3341019,102.95013 29.4258049,102.06577 28.9373866,101.515322 M8.8145513,97.3717838 C8.8145513,98.3421509 9.61894639,99.1071119 10.5678734,99.1071119 L28.8068095,99.1071119 C31.1272949,94.931194 26.9707552,91.8005204 25.8533737,91.8005204 L18.6796049,91.8005204 C18.4682892,91.0537728 17.7964648,90.5154669 16.9930664,90.5154669 C16.0421459,90.5154669 15.2337637,91.2763805 15.223796,92.2568661 L15.223796,95.6152067 L10.5678734,95.6152067 C9.61097222,95.6152067 8.8145513,96.3892744 8.8145513,97.3717838 M11.2686042,94.6640648 C12.8275558,94.6640648 14.0934564,93.3779994 14.0934564,91.8005204 C14.0934564,90.2210176 12.8275558,88.9228101 11.2686042,88.9228101 C9.7186236,88.9228101 8.44574562,90.2210176 8.44574562,91.8005204 C8.44574562,93.3779994 9.7186236,94.6640648 11.2686042,94.6640648" id="hotel--white" fill="#FFFFFF" sketch:type="MSShapeGroup"></path>
        <path d="M28.9373866,61.5153223 C28.6991581,61.235039 28.3542749,61.0873085 27.9505822,61.0873085 L6.70538152,61.0873085 L6.70538152,50.3677363 C6.70538152,49.0715525 5.75844802,48 4.59920206,48 C3.43596901,48 2.5,49.0715525 2.5,50.3677363 L2.5,66.6444059 C2.5,67.9466609 3.43596901,69 4.59920206,69 C5.75844802,69 6.70538152,67.9466609 6.70538152,66.6444059 L6.70538152,65.1367447 L25.1147656,65.1367447 L25.1147656,66.5928014 C25.1147656,67.891009 26.0646894,68.9443481 27.2249321,68.9443481 C28.3841781,68.9443481 29.3341019,67.891009 29.3341019,66.5928014 L29.3341019,63.0594102 C29.3341019,62.9501301 29.4258049,62.0657705 28.9373866,61.5153223 M8.8145513,57.3717838 C8.8145513,58.3421509 9.61894639,59.1071119 10.5678734,59.1071119 L28.8068095,59.1071119 C31.1272949,54.931194 26.9707552,51.8005204 25.8533737,51.8005204 L18.6796049,51.8005204 C18.4682892,51.0537728 17.7964648,50.5154669 16.9930664,50.5154669 C16.0421459,50.5154669 15.2337637,51.2763805 15.223796,52.2568661 L15.223796,55.6152067 L10.5678734,55.6152067 C9.61097222,55.6152067 8.8145513,56.3892744 8.8145513,57.3717838 M11.2686042,54.6640648 C12.8275558,54.6640648 14.0934564,53.3779994 14.0934564,51.8005204 C14.0934564,50.2210176 12.8275558,48.9228101 11.2686042,48.9228101 C9.7186236,48.9228101 8.44574562,50.2210176 8.44574562,51.8005204 C8.44574562,53.3779994 9.7186236,54.6640648 11.2686042,54.6640648" id="hotel--body-grey" fill="#67747C" sketch:type="MSShapeGroup"></path>
        <path d="M28.9373866,21.5153223 C28.6991581,21.235039 28.3542749,21.0873085 27.9505822,21.0873085 L6.70538152,21.0873085 L6.70538152,10.3677363 C6.70538152,9.07155247 5.75844802,8 4.59920206,8 C3.43596901,8 2.5,9.07155247 2.5,10.3677363 L2.5,26.6444059 C2.5,27.9466609 3.43596901,29 4.59920206,29 C5.75844802,29 6.70538152,27.9466609 6.70538152,26.6444059 L6.70538152,25.1367447 L25.1147656,25.1367447 L25.1147656,26.5928014 C25.1147656,27.891009 26.0646894,28.9443481 27.2249321,28.9443481 C28.3841781,28.9443481 29.3341019,27.891009 29.3341019,26.5928014 L29.3341019,23.0594102 C29.3341019,22.9501301 29.4258049,22.0657705 28.9373866,21.5153223 M8.8145513,17.3717838 C8.8145513,18.3421509 9.61894639,19.1071119 10.5678734,19.1071119 L28.8068095,19.1071119 C31.1272949,14.931194 26.9707552,11.8005204 25.8533737,11.8005204 L18.6796049,11.8005204 C18.4682892,11.0537728 17.7964648,10.5154669 16.9930664,10.5154669 C16.0421459,10.5154669 15.2337637,11.2763805 15.223796,12.2568661 L15.223796,15.6152067 L10.5678734,15.6152067 C9.61097222,15.6152067 8.8145513,16.3892744 8.8145513,17.3717838 M11.2686042,14.6640648 C12.8275558,14.6640648 14.0934564,13.3779994 14.0934564,11.8005204 C14.0934564,10.2210176 12.8275558,8.92281006 11.2686042,8.92281006 C9.7186236,8.92281006 8.44574562,10.2210176 8.44574562,11.8005204 C8.44574562,13.3779994 9.7186236,14.6640648 11.2686042,14.6640648" id="hotel--title-grey" fill="#3B444F" sketch:type="MSShapeGroup"></path>
    </g>
</svg>

<svg width="32" height="232" viewBox="0 0 32 232" xmlns="http://www.w3.org/2000/svg" xmlns:sketch="http://www.bohemiancoding.com/sketch/ns"><title>hotel</title><g sketch:type="MSPage" fill="none"><path d="M28.937 181.515c-.238-.28-.583-.428-.987-.428h-21.245v-10.72c0-1.296-.947-2.368-2.106-2.368-1.163 0-2.099 1.072-2.099 2.368v16.277c0 1.302.936 2.356 2.099 2.356 1.159 0 2.106-1.053 2.106-2.356v-1.508h18.409v1.456c0 1.298.95 2.352 2.11 2.352 1.159 0 2.109-1.053 2.109-2.352v-3.533c0-.109.092-.994-.397-1.544m-20.123-4.144c0 .97.804 1.735 1.753 1.735h18.239c2.32-4.176-1.836-7.307-2.953-7.307h-7.174c-.211-.747-.883-1.285-1.687-1.285-.951 0-1.759.761-1.769 1.741v3.358h-4.656c-.957 0-1.753.774-1.753 1.757m2.454-2.708c1.559 0 2.825-1.286 2.825-2.864 0-1.58-1.266-2.878-2.825-2.878-1.55 0-2.823 1.298-2.823 2.878 0 1.577 1.273 2.864 2.823 2.864" fill="#BF538D" sketch:type="MSShapeGroup"/><path d="M28.937 141.515c-.238-.28-.583-.428-.987-.428h-21.245v-10.72c0-1.296-.947-2.368-2.106-2.368-1.163 0-2.099 1.072-2.099 2.368v16.277c0 1.302.936 2.356 2.099 2.356 1.159 0 2.106-1.053 2.106-2.356v-1.508h18.409v1.456c0 1.298.95 2.352 2.11 2.352 1.159 0 2.109-1.053 2.109-2.352v-3.533c0-.109.092-.994-.397-1.544m-20.123-4.144c0 .97.804 1.735 1.753 1.735h18.239c2.32-4.176-1.836-7.307-2.953-7.307h-7.174c-.211-.747-.883-1.285-1.687-1.285-.951 0-1.759.761-1.769 1.741v3.358h-4.656c-.957 0-1.753.774-1.753 1.757m2.454-2.708c1.559 0 2.825-1.286 2.825-2.864 0-1.58-1.266-2.878-2.825-2.878-1.55 0-2.823 1.298-2.823 2.878 0 1.577 1.273 2.864 2.823 2.864" fill="#206FAC" sketch:type="MSShapeGroup"/><path d="M28.937 101.515c-.238-.28-.583-.428-.987-.428h-21.245v-10.72c0-1.296-.947-2.368-2.106-2.368-1.163 0-2.099 1.072-2.099 2.368v16.277c0 1.302.936 2.356 2.099 2.356 1.159 0 2.106-1.053 2.106-2.356v-1.508h18.409v1.456c0 1.298.95 2.352 2.11 2.352 1.159 0 2.109-1.053 2.109-2.352v-3.533c0-.109.092-.994-.397-1.544m-20.123-4.144c0 .97.804 1.735 1.753 1.735h18.239c2.32-4.176-1.836-7.307-2.953-7.307h-7.174c-.211-.747-.883-1.285-1.687-1.285-.951 0-1.759.761-1.769 1.741v3.358h-4.656c-.957 0-1.753.774-1.753 1.757m2.454-2.708c1.559 0 2.825-1.286 2.825-2.864 0-1.58-1.266-2.878-2.825-2.878-1.55 0-2.823 1.298-2.823 2.878 0 1.577 1.273 2.864 2.823 2.864" fill="#fff" sketch:type="MSShapeGroup"/><path d="M28.937 61.515c-.238-.28-.583-.428-.987-.428h-21.245v-10.72c0-1.296-.947-2.368-2.106-2.368-1.163 0-2.099 1.072-2.099 2.368v16.277c0 1.302.936 2.356 2.099 2.356 1.159 0 2.106-1.053 2.106-2.356v-1.508h18.409v1.456c0 1.298.95 2.352 2.11 2.352 1.159 0 2.109-1.053 2.109-2.352v-3.533c0-.109.092-.994-.397-1.544m-20.123-4.144c0 .97.804 1.735 1.753 1.735h18.239c2.32-4.176-1.836-7.307-2.953-7.307h-7.174c-.211-.747-.883-1.285-1.687-1.285-.951 0-1.759.761-1.769 1.741v3.358h-4.656c-.957 0-1.753.774-1.753 1.757m2.454-2.708c1.559 0 2.825-1.286 2.825-2.864 0-1.58-1.266-2.878-2.825-2.878-1.55 0-2.823 1.298-2.823 2.878 0 1.577 1.273 2.864 2.823 2.864" fill="#67747C" sketch:type="MSShapeGroup"/><path d="M28.937 21.515c-.238-.28-.583-.428-.987-.428h-21.245v-10.72c0-1.296-.947-2.368-2.106-2.368-1.163 0-2.099 1.072-2.099 2.368v16.277c0 1.302.936 2.356 2.099 2.356 1.159 0 2.106-1.053 2.106-2.356v-1.508h18.409v1.456c0 1.298.95 2.352 2.11 2.352 1.159 0 2.109-1.053 2.109-2.352v-3.533c0-.109.092-.994-.397-1.544m-20.123-4.144c0 .97.804 1.735 1.753 1.735h18.239c2.32-4.176-1.836-7.307-2.953-7.307h-7.174c-.211-.747-.883-1.285-1.687-1.285-.951 0-1.759.761-1.769 1.741v3.358h-4.656c-.957 0-1.753.774-1.753 1.757m2.454-2.708c1.559 0 2.825-1.286 2.825-2.864 0-1.58-1.266-2.878-2.825-2.878-1.55 0-2.823 1.298-2.823 2.878 0 1.577 1.273 2.864 2.823 2.864" fill="#3B444F" sketch:type="MSShapeGroup"/></g></svg>
